ui_kit/lib/assets/icons/preview_state_on.svg

<svg width="24" height="24" viewBox="0 0 24 24" fill="none" xmlns="http://www.w3.org/2000/svg">
<path fill-rule="evenodd" clip-rule="evenodd" d="M4.93082 12.2807C4.79621 12.0722 4.68754 11.8917 4.60557 11.75C4.68754 11.6084 4.79621 11.4279 4.93082 11.2194C5.27659 10.6841 5.78864 9.97209 6.45343 9.26299C7.79667 7.83019 9.67468 6.50001 12.0001 6.50001C14.3255 6.50001 16.2035 7.83019 17.5467 9.26299C18.2115 9.97209 18.7235 10.6841 19.0693 11.2194C19.2039 11.4279 19.3126 11.6084 19.3946 11.75C19.3126 11.8917 19.2039 12.0722 19.0693 12.2807C18.7235 12.816 18.2115 13.528 17.5467 14.2371C16.2035 15.6699 14.3255 17.0001 12.0001 17.0001C9.67468 17.0001 7.79667 15.6699 6.45343 14.2371C5.78864 13.528 5.27659 12.816 4.93082 12.2807ZM20.2501 11.75C20.9209 11.4146 20.9208 11.4144 20.9207 11.4141L20.2501 11.75ZM20.9207 11.4141C21.0263 11.6253 21.0265 11.8743 20.9209 12.0855L20.2501 11.75C20.9209 12.0855 20.9205 12.0864 20.9204 12.0867L20.9195 12.0884L20.9169 12.0935L20.9084 12.1102C20.9012 12.1241 20.8911 12.1436 20.8781 12.1682C20.852 12.2175 20.8141 12.2876 20.7647 12.3756C20.6658 12.5513 20.5202 12.7989 20.3294 13.0945C19.9486 13.6841 19.3825 14.4721 18.641 15.263C17.1717 16.8303 14.9247 18.5001 12.0001 18.5001C9.07541 18.5001 6.82839 16.8303 5.35911 15.263C4.61764 14.4721 4.05156 13.6841 3.67076 13.0945C3.47989 12.7989 3.33435 12.5513 3.23548 12.3756C3.18602 12.2876 3.14816 12.2175 3.12207 12.1682C3.10902 12.1436 3.09891 12.1241 3.09175 12.1102L3.08324 12.0935L3.08065 12.0884L3.07918 12.0855L3.75001 11.75C3.08379 12.0832 3.07908 12.0852 3.07918 12.0855L3.07918 12.0855C2.97361 11.8743 2.97361 11.6258 3.07918 11.4146L3.74917 11.7496C3.07918 11.4146 3.07964 11.4137 3.07978 11.4134L3.08065 11.4117L3.08324 11.4066L3.09175 11.3899C3.09891 11.376 3.10902 11.3565 3.12207 11.3319C3.14816 11.2826 3.18602 11.2125 3.23548 11.1245C3.33435 10.9488 3.47989 10.7012 3.67076 10.4056C4.05156 9.81602 4.61764 9.02798 5.35911 8.23707C6.82839 6.66984 9.07541 5 12.0001 5C14.9247 5 17.1717 6.66984 18.641 8.23707C19.3825 9.02798 19.9486 9.81602 20.3294 10.4056C20.5202 10.7012 20.6658 10.9488 20.7647 11.1245C20.8141 11.2125 20.852 11.2826 20.8781 11.3319C20.8911 11.3565 20.9012 11.376 20.9084 11.3899L20.9169 11.4066L20.9195 11.4117L20.9207 11.4141ZM10.5002 11.7501C10.5002 10.9217 11.1717 10.2501 12.0002 10.2501C12.8286 10.2501 13.5002 10.9217 13.5002 11.7501C13.5002 12.5786 12.8286 13.2501 12.0002 13.2501C11.1717 13.2501 10.5002 12.5786 10.5002 11.7501ZM12.0002 8.7501C10.3433 8.7501 9.00015 10.0933 9.00015 11.7501C9.00015 13.407 10.3433 14.7501 12.0002 14.7501C13.657 14.7501 15.0002 13.407 15.0002 11.7501C15.0002 10.0933 13.657 8.7501 12.0002 8.7501Z" fill="white"/>
</svg>

<svg xmlns="http://www.w3.org/2000/svg" width="24" height="24" fill="none" viewBox="0 0 24 24"><path fill="#fff" fill-rule="evenodd" d="M4.93 12.28a12.813 12.813 0 0 1-.324-.53 14.011 14.011 0 0 1 1.848-2.487C7.796 7.83 9.673 6.5 12 6.5c2.325 0 4.203 1.33 5.547 2.763a14.013 14.013 0 0 1 1.848 2.487 14.013 14.013 0 0 1-1.848 2.487C16.203 15.67 14.325 17 12 17c-2.325 0-4.203-1.33-5.547-2.763a14.011 14.011 0 0 1-1.522-1.956Zm15.32-.53.67-.336-.67.336Zm.67-.336a.751.751 0 0 1 0 .671l-.67-.335c.67.335.67.336.67.337v.001l-.003.006-.009.016-.03.058a14.008 14.008 0 0 1-.549.926 15.46 15.46 0 0 1-1.688 2.169c-1.47 1.567-3.716 3.237-6.64 3.237-2.926 0-5.173-1.67-6.642-3.237a15.508 15.508 0 0 1-2.124-2.887 9.417 9.417 0 0 1-.143-.266l-.009-.016-.002-.006-.002-.002.671-.336-.67.335a.75.75 0 0 1 0-.67l.67.335c-.67-.335-.67-.336-.67-.337v-.001l.003-.005.009-.017a5.328 5.328 0 0 1 .143-.266A15.51 15.51 0 0 1 5.36 8.237C6.83 6.67 9.075 5 12 5s5.172 1.67 6.641 3.237a15.508 15.508 0 0 1 2.124 2.887c.05.088.087.159.113.208l.03.058.009.017.002.005.002.002Zm-10.42.336a1.5 1.5 0 1 1 3 0 1.5 1.5 0 0 1-3 0Zm1.5-3a3 3 0 1 0 0 6 3 3 0 0 0 0-6Z" clip-rule="evenodd"/></svg>
